icons/ice-skate-two-color.svg

<?xml version="1.0" encoding="UTF-8"?><svg xmlns="http://www.w3.org/2000/svg" viewBox="0 0 50 50"><g id="uuid-9df8726c-55d9-434b-a632-6506276405f1"><g><path d="M42.4,34.91c-.24-5.36-4.26-9.74-9.45-10.57l-1-.11c-.25-.02-.51-.04-.76-.04h-5.85c-.21,0-.43,0-.64,0V12.47H10.41v25.44H42.41c0-1,0-2-.01-3Z" fill="#ffcd00"/><path d="M44.16,36.16c-.28,0-.5,.22-.5,.5s.22,.5,.5,.5c1.6,0,2.9,1.3,2.9,2.9s-1.3,2.9-2.9,2.9h-12.71v-5.79h9.71c.28,0,.5-.22,.5-.5v-3c0-6.74-5.48-12.22-12.22-12.22h-5.5V10.72h1.06c.28,0,.5-.22,.5-.5v-3.67c0-.28-.22-.5-.5-.5H6.58c-.28,0-.5,.22-.5,.5v3.67c0,.28,.22,.5,.5,.5h1.07v25.94c0,.28,.22,.5,.5,.5h5.88v5.79H2.44c-.28,0-.5,.22-.5,.5s.22,.5,.5,.5H44.16c2.15,0,3.9-1.75,3.9-3.9s-1.75-3.9-3.9-3.9Zm-18.44-13.72v2.38c0,.28,.22,.5,.5,.5s.5-.22,.5-.5v-2.38h2.72c.26,0,.51,.02,.76,.04v2.35c0,.28,.22,.5,.5,.5s.5-.22,.5-.5v-2.23c5.19,.83,9.21,5.21,9.45,10.57H8.66V10.72h14.28v3.28h-2.26c-.28,0-.5,.22-.5,.5s.22,.5,.5,.5h2.26v3.05h-2.26c-.28,0-.5,.22-.5,.5s.22,.5,.5,.5h2.26v2.63l-1.83,1.83c-.2,.2-.2,.51,0,.71,.1,.1,.23,.15,.35,.15s.26-.05,.35-.15l1.77-1.77h2.13ZM7.08,9.72v-2.67H24.5v2.67H7.08Zm1.57,26.44v-2H40.66v2H8.66Zm21.8,6.79H15.03v-5.79h15.42v5.79Z"/></g></g><g id="uuid-330a812a-c6ac-411f-a8e1-72f325a4a11e"><text transform="translate(1.03 55.01)" font-family="Roboto-Regular, Roboto" font-size="6"><tspan x="0" y="0">ice-skate</tspan></text></g></svg>

<svg xmlns="http://www.w3.org/2000/svg" viewBox="0 0 50 50"><g id="f1d4cc88-3c36-43c4-96a2-6ac078708ad0" data-name="ICONS"><path d="M42.4,34.91A11.25,11.25,0,0,0,33,24.34l-1-.11c-.25,0-.5,0-.76,0H24.7V12.47H10.41V37.91h32C42.41,36.91,42.4,35.91,42.4,34.91Z" fill="#fdd600"/><path d="M44.16,36.16a.51.51,0,0,0-.5.5.5.5,0,0,0,.5.5,2.9,2.9,0,1,1,0,5.79H31.45V37.16h9.71a.5.5,0,0,0,.5-.5v-3A12.23,12.23,0,0,0,29.44,21.44h-5.5V10.72H25a.5.5,0,0,0,.5-.5V6.55a.5.5,0,0,0-.5-.5H6.58a.5.5,0,0,0-.5.5v3.67a.5.5,0,0,0,.5.5H7.66V36.66a.5.5,0,0,0,.5.5H14V43H2.44a.51.51,0,0,0-.5.5.5.5,0,0,0,.5.5H44.16a3.9,3.9,0,1,0,0-7.79ZM25.72,22.44v2.39a.5.5,0,0,0,1,0V22.44h2.72c.26,0,.51,0,.76,0v2.35a.51.51,0,0,0,.5.5.5.5,0,0,0,.5-.5V22.59a11.25,11.25,0,0,1,9.45,10.57h-32V10.72H22.94V14H20.67a.5.5,0,0,0,0,1h2.27v3.05H20.67a.5.5,0,0,0-.5.5.51.51,0,0,0,.5.5h2.27v2.63L21.11,23.5a.51.51,0,0,0,0,.71.51.51,0,0,0,.36.15.49.49,0,0,0,.35-.15l1.77-1.77ZM7.08,9.72V7.05H24.5V9.72H7.08ZM8.66,36.16v-2h32v2ZM30.45,43H15V37.16H30.45Z" fill="#231f20"/></g><g id="bbf54d23-41d4-4217-af12-8eac7adc714d" data-name="LABELS"><text transform="translate(1.03 55.01)" font-size="6" fill="#231f20" font-family="Roboto-Regular, Roboto">ice-skate</text></g></svg>
